svg/color/wbtc.svg

<svg width="64" height="65" viewBox="0 0 64 65" fill="none" xmlns="http://www.w3.org/2000/svg">
<g clip-path="url(#clip0_11313_5484)">
<rect y="0.303711" width="64" height="64" rx="32" fill="white"/>
<ellipse cx="31.9999" cy="32.3037" rx="31.9999" ry="32" fill="white"/>
<path d="M52.1853 13.7351L50.428 15.4924C54.6211 20.0779 56.9464 26.0666 56.9464 32.2802C56.9464 38.4939 54.6211 44.4826 50.428 49.0681L52.1853 50.8253C56.8485 45.7672 59.4375 39.1394 59.4375 32.2597C59.4375 25.38 56.8485 18.7522 52.1853 13.6941V13.7351Z" fill="#5A5564"/>
<path d="M15.2297 13.8874C19.8152 9.69426 25.8039 7.36894 32.0175 7.36894C38.2312 7.36894 44.2199 9.69426 48.8054 13.8874L50.5626 12.1301C45.5045 7.46691 38.8767 4.87793 31.997 4.87793C25.1173 4.87793 18.4895 7.46691 13.4314 12.1301L15.2297 13.8874Z" fill="#5A5564"/>
<path d="M13.5837 49.0858C9.39552 44.5013 7.07326 38.5163 7.07326 32.3067C7.07326 26.0972 9.39552 20.1121 13.5837 15.5277L11.8264 13.7704C7.1632 18.8285 4.57422 25.4563 4.57422 32.336C4.57422 39.2157 7.1632 45.8435 11.8264 50.9016L13.5837 49.0858Z" fill="#5A5564"/>
<path d="M48.7819 50.7081C44.1964 54.9013 38.2077 57.2266 31.9941 57.2266C25.7805 57.2266 19.7918 54.9013 15.2063 50.7081L13.449 52.4654C18.5071 57.1286 25.1349 59.7176 32.0146 59.7176C38.8943 59.7176 45.5221 57.1286 50.5802 52.4654L48.7819 50.7081Z" fill="#5A5564"/>
<path d="M43.0941 26.4401C42.7427 22.7732 39.5796 21.5431 35.5788 21.1683V16.119H32.486V21.0745C31.6718 21.0745 30.84 21.0745 30.0141 21.0745V16.119H26.9447V21.2034H20.6713V24.5129C20.6713 24.5129 22.9557 24.4719 22.9206 24.5129C23.3325 24.4676 23.7459 24.584 24.0737 24.8375C24.4015 25.091 24.6181 25.4618 24.6779 25.8719V39.7895C24.6691 39.9341 24.6313 40.0755 24.567 40.2053C24.5026 40.3351 24.4128 40.4507 24.303 40.5452C24.1952 40.6414 24.0691 40.715 23.9322 40.7613C23.7953 40.8076 23.6504 40.8257 23.5063 40.8146C23.5473 40.8498 21.257 40.8146 21.257 40.8146L20.6713 44.5107H26.8862V49.6771H29.979V44.5869H32.4509V49.6537H35.5495V44.5459C40.7745 44.2296 44.4179 42.9409 44.8748 38.0498C45.2438 34.1135 43.3928 32.3562 40.4348 31.6475C42.233 30.763 43.346 29.1229 43.0941 26.4401ZM38.7595 37.4406C38.7595 41.2832 32.1756 40.8439 30.0785 40.8439V34.0257C32.1756 34.0315 38.7595 33.4282 38.7595 37.4406ZM37.3244 27.8342C37.3244 31.3487 31.83 30.9211 30.0844 30.9211V24.7238C31.83 24.7238 37.3244 24.1732 37.3244 27.8342Z" fill="#F09242"/>
<path d="M31.9942 64.3037C25.6657 64.3026 19.4796 62.425 14.2181 58.9083C8.95664 55.3917 4.85603 50.3939 2.43475 44.5469C0.0134704 38.6999 -0.619743 32.2662 0.615171 26.0594C1.85009 19.8526 4.89767 14.1512 9.3726 9.67631C13.8475 5.20138 19.5488 2.1538 25.7557 0.918882C31.9625 -0.316032 38.3962 0.317181 44.2432 2.73846C50.0902 5.15974 55.088 9.26035 58.6046 14.5218C62.1213 19.7833 63.9989 25.9694 64 32.2979C64.0008 36.5012 63.1735 40.6634 61.5653 44.5469C59.9571 48.4304 57.5996 51.959 54.6274 54.9311C51.6553 57.9033 48.1267 60.2608 44.2432 61.869C40.3597 63.4772 36.1974 64.3045 31.9942 64.3037ZM31.9942 2.79906C26.1637 2.80369 20.4654 4.53672 15.6196 7.7791C10.7738 11.0215 6.99803 15.6277 4.76946 21.0154C2.5409 26.4032 1.95962 32.3308 3.09908 38.0488C4.23854 43.7669 7.0476 49.0188 11.1712 53.1408C15.2948 57.2628 20.5478 60.0697 26.2664 61.2069C31.9849 62.3441 37.9122 61.7605 43.2991 59.5298C48.686 57.2991 53.2907 53.5215 56.5311 48.6744C59.7716 43.8273 61.5024 38.1284 61.5047 32.2979C61.5062 28.4226 60.7439 24.5851 59.2612 21.0046C57.7786 17.4242 55.6047 14.1712 52.864 11.4315C50.1232 8.6918 46.8693 6.51924 43.2883 5.03802C39.7073 3.5568 35.8694 2.79598 31.9942 2.79906Z" fill="#282138"/>
</g>
<rect x="0.5" y="0.803711" width="63" height="63" rx="31.5" stroke="#070B14" stroke-opacity="0.15"/>
<defs>
<clipPath id="clip0_11313_5484">
<rect y="0.303711" width="64" height="64" rx="32" fill="white"/>
</clipPath>
</defs>
</svg>

<svg xmlns="http://www.w3.org/2000/svg" width="64" height="65" fill="none" viewBox="0 0 64 65"><g clip-path="url(#wbtc_svg-a)"><rect width="64" height="64" y=".304" fill="#fff" rx="32"/><circle cx="32" cy="32.304" r="32" fill="#fff"/><path fill="#5A5564" d="m52.185 13.735-1.757 1.757a24.877 24.877 0 0 1 0 33.576l1.757 1.757a27.39 27.39 0 0 0 0-37.13zm-36.955.152a24.877 24.877 0 0 1 33.575 0l1.758-1.757a27.39 27.39 0 0 0-37.132 0zm-1.646 35.199a24.877 24.877 0 0 1 0-33.558l-1.758-1.758a27.39 27.39 0 0 0 0 37.132zm35.198 1.622a24.877 24.877 0 0 1-33.576 0l-1.757 1.757a27.39 27.39 0 0 0 37.131 0z"/><path fill="#F09242" d="M43.094 26.44c-.351-3.667-3.514-4.897-7.515-5.272V16.12h-3.093v4.956h-2.472V16.12h-3.07v5.084h-6.273v3.31s2.285-.041 2.25 0a1.6 1.6 0 0 1 1.757 1.359V39.79a1.1 1.1 0 0 1-.375.756 1.07 1.07 0 0 1-.797.27c.041.035-2.249 0-2.249 0l-.586 3.696h6.215v5.166h3.093v-5.09h2.472v5.067h3.099v-5.108c5.225-.316 8.868-1.605 9.325-6.496.369-3.936-1.482-5.694-4.44-6.402 1.798-.885 2.911-2.525 2.66-5.208m-4.334 11c0 3.843-6.584 3.404-8.681 3.404v-6.818c2.097.005 8.68-.598 8.68 3.415m-1.436-9.606c0 3.515-5.494 3.087-7.24 3.087v-6.197c1.746 0 7.24-.55 7.24 3.11"/><path fill="#282138" d="M31.994 64.304a32 32 0 1 1 .011-64 32 32 0 0 1-.01 64m0-61.505a29.487 29.487 0 1 0 .047 58.975 29.487 29.487 0 0 0-.047-58.975"/></g><rect width="63" height="63" x=".5" y=".804" stroke="#070B14" stroke-opacity=".15" rx="31.5"/><defs><clipPath id="wbtc_svg-a"><rect width="64" height="64" y=".304" fill="#fff" rx="32"/></clipPath></defs></svg>
